X:135
T: Metzger zu Frankfurt (2-37) S. 117
N: P0910
O: Lothringen
S: PINCK, Louis: Verklingende Weisen, Bd 2, Metz 1928]
R: Brautwerbung]
M: 6/8
L: 1/16
K: A
E2 | E2A2A2A4c2 | c4e2A4
c2 | c2B2B2E2G2B2 | B6A4
E2 | E2A2AAA2c2c2 | c4e2A4
c2 | c2B2B2E2G2B2 | B6A4
E2 | E2A2AAA2c2c2 | c4e2A4
c2 | c2B2B2E2G2B2 | B6A4

